assets/svg/icon_block_eye_off.svg

<svg width="24" height="24" viewBox="0 0 24 24" fill="none" xmlns="http://www.w3.org/2000/svg">
<path d="M15.1809 16.2375L21.2199 22.278C21.2897 22.3478 21.3725 22.4031 21.4636 22.4408C21.5547 22.4786 21.6523 22.498 21.7509 22.498C21.8496 22.498 21.9472 22.4786 22.0383 22.4408C22.1294 22.4031 22.2122 22.3478 22.2819 22.278C22.3517 22.2083 22.407 22.1255 22.4447 22.0344C22.4825 21.9433 22.5019 21.8457 22.5019 21.747C22.5019 21.6484 22.4825 21.5508 22.4447 21.4597C22.407 21.3686 22.3517 21.2858 22.2819 21.216L2.78195 1.71604C2.71222 1.64631 2.62943 1.59099 2.53832 1.55326C2.44721 1.51552 2.34956 1.49609 2.25095 1.49609C2.15233 1.49609 2.05468 1.51552 1.96357 1.55326C1.87246 1.59099 1.78968 1.64631 1.71995 1.71604C1.65022 1.78577 1.5949 1.86856 1.55716 1.95967C1.51942 2.05078 1.5 2.14843 1.5 2.24704C1.5 2.34566 1.51942 2.44331 1.55716 2.53442C1.5949 2.62553 1.65022 2.70831 1.71995 2.77804L6.56495 7.62304C5.90552 8.09017 5.31217 8.64418 4.80095 9.27004C4.07705 10.1583 3.51038 11.1638 3.12545 12.243C3.09395 12.3345 3.05495 12.4605 3.05495 12.4605L3.02795 12.5535C3.02795 12.5535 2.91395 13.299 3.56045 13.47C3.75259 13.5208 3.95704 13.4933 4.12888 13.3934C4.30072 13.2936 4.42591 13.1296 4.47695 12.9375L4.47845 12.933L4.49045 12.8955L4.54295 12.732C4.86988 11.8208 5.3492 10.9718 5.96045 10.221C6.44097 9.63043 7.00964 9.11741 7.64645 8.70004L10.0134 11.067C9.53579 11.3664 9.13178 11.7696 8.83146 12.2467C8.53113 12.7238 8.34223 13.2624 8.2788 13.8225C8.21536 14.3827 8.27903 14.9499 8.46507 15.4821C8.6511 16.0142 8.95472 16.4975 9.35333 16.8962C9.75194 17.2948 10.2353 17.5984 10.7674 17.7844C11.2996 17.9705 11.8668 18.0341 12.427 17.9707C12.9871 17.9073 13.5257 17.7184 14.0028 17.418C14.4799 17.1177 14.8831 16.7137 15.1824 16.236L15.1809 16.2375ZM14.0709 15.1275C13.927 15.4666 13.702 15.765 13.4157 15.9968C13.1294 16.2285 12.7906 16.3865 12.4291 16.4567C12.0675 16.527 11.6943 16.5074 11.342 16.3997C10.9898 16.292 10.6694 16.0994 10.409 15.839C10.1485 15.5786 9.95602 15.2582 9.84832 14.906C9.74062 14.5537 9.72103 14.1805 9.79127 13.8189C9.86152 13.4573 10.0194 13.1186 10.2512 12.8323C10.483 12.546 10.7814 12.321 11.1204 12.177L14.0739 15.129L14.0709 15.1275ZM9.48095 6.29704L10.7619 7.57804C11.1519 7.52554 11.5644 7.49704 12.0009 7.49704C15.0669 7.49704 16.9299 8.86504 18.0429 10.2225C18.6543 10.9732 19.1336 11.8223 19.4604 12.7335C19.4859 12.8055 19.5024 12.861 19.5129 12.897L19.5249 12.9345V12.939L19.5264 12.9405C19.5819 13.1277 19.7083 13.2859 19.8785 13.3814C20.0488 13.477 20.2496 13.5023 20.4383 13.4521C20.627 13.4019 20.7887 13.2801 20.889 13.1126C20.9893 12.9451 21.0203 12.7451 20.9754 12.555V12.5505L20.9739 12.5445L20.9679 12.525C20.942 12.4303 20.9119 12.3367 20.8779 12.2445C20.493 11.1653 19.9263 10.1598 19.2024 9.27154C17.8584 7.62904 15.5949 5.99704 12.0039 5.99704C11.0769 5.99704 10.2384 6.10504 9.48245 6.29554L9.48095 6.29704Z" fill="#5A5E66"/>
</svg>

<svg xmlns="http://www.w3.org/2000/svg" width="24" height="24" fill="none"><path fill="#5A5E66" d="m15.18 16.238 6.04 6.04a.75.75 0 1 0 1.062-1.062l-19.5-19.5A.75.75 0 1 0 1.72 2.778l4.845 4.845A9 9 0 0 0 4.8 9.27a10 10 0 0 0-1.676 2.973c-.031.091-.07.217-.07.217l-.027.093s-.114.746.532.917a.75.75 0 0 0 .917-.533l.001-.004.012-.037.053-.164a8.6 8.6 0 0 1 1.417-2.511A7.4 7.4 0 0 1 7.646 8.7l2.367 2.367a3.75 3.75 0 1 0 5.17 5.169zm-1.11-1.11a2.249 2.249 0 0 1-4.279-1.31 2.25 2.25 0 0 1 1.33-1.641l2.953 2.952zM9.48 6.297l1.282 1.281q.584-.08 1.239-.081c3.066 0 4.929 1.368 6.042 2.726.611.75 1.09 1.6 1.417 2.51q.038.109.053.164l.012.037v.005l.001.002a.75.75 0 0 0 1.45-.386v-.005l-.002-.006-.006-.019a3 3 0 0 0-.09-.28 10 10 0 0 0-1.676-2.973c-1.344-1.643-3.607-3.275-7.198-3.275-.927 0-1.766.108-2.522.299z"/></svg>
